; generated by PrusaSlicer 2.4.0+arm64 on 2022-03-01 at 09:46:30 UTC

; 

; external perimeters extrusion width = 0.45mm
; perimeters extrusion width = 0.45mm
; infill extrusion width = 0.45mm
; solid infill extrusion width = 0.45mm
; top infill extrusion width = 0.40mm
; first layer extrusion width = 0.42mm

M73 P0 R134
M73 Q0 S134
M201 X1000 Y1000 Z200 E5000 ; sets maximum accelerations, mm/sec^2
M203 X200 Y200 Z12 E120 ; sets maximum feedrates, mm/sec
M204 P1250 R1250 T1250 ; sets acceleration (P, T) and retract acceleration (R), mm/sec^2
M205 X8.00 Y8.00 Z0.40 E4.50 ; sets the jerk limits, mm/sec
M205 S0 T0 ; sets the minimum extruding and travel feed rate, mm/sec
M107
;TYPE:Custom
M862.3 P "MK3S" ; printer model check
M862.1 P0.4 ; nozzle diameter check
M115 U3.10.1 ; tell printer latest fw version
G90 ; use absolute coordinates
M83 ; extruder relative mode
M104 S215 ; set extruder temp
M140 S60 ; set bed temp
M190 S60 ; wait for bed temp
M109 S215 ; wait for extruder temp
G28 W ; home all without mesh bed level
G80 ; mesh bed leveling
G1 Z0.2 F720
G1 Y-3 F1000 ; go outside print area
G92 E0
G1 X60 E9 F1000 ; intro line
G1 X100 E12.5 F1000 ; intro line
G92 E0
M221 S95

; Don't change E values below. Excessive value can damage the printer.

M907 E538 ; set extruder motor current
G21 ; set units to millimeters
G90 ; use absolute coordinates
M83 ; use relative distances for extrusion
M900 K0.05 ; Filament gcode LA 1.5
M900 K30 ; Filament gcode LA 1.0
M107
;LAYER_CHANGE
;Z:0.2
;HEIGHT:0.2
;BEFORE_LAYER_CHANGE
G92 E0.0
;0.2


G1 E-.8 F2100
G1 Z.4 F720
;AFTER_LAYER_CHANGE
;0.2
G1 X60.06 Y86.617 F10800
G1 Z.2 F720
G1 E.8 F2100
M204 S800
;TYPE:Skirt/Brim
;WIDTH:0.42
G1 F1200
G1 X61 Y86.423 E.03008
G1 X119 Y86.423 E1.81855
G1 X120.307 Y86.815 E.04278
M73 P0 R133
G1 X121.183 Y87.86 E.04278
G1 X121.377 Y88.8 E.03008
G1 X121.377 Y91.6 E.08779
G1 X120.985 Y92.907 E.04278
G1 X119.94 Y93.783 E.04278
G1 X119 Y93.977 E.03008
G1 X61 Y93.977 E1.81855
G1 X59.693 Y93.585 E.04278
G1 X58.817 Y92.54 E.04278
G1 X58.623 Y91.6 E.03008
G1 X58.623 Y88.8 E.08779
G1 X59.015 Y87.493 E.04278
G1 X60.014 Y86.655 E.0409
M204 S1000
; printing object mnemokeeper.stl id:0 copy 0
;WIPE_START
G1 F8640
G1 X61 Y86.423 E-.23384
G1 X63.279 Y86.423 E-.52616
;WIPE_END
G1 E-.04 F2100
G1 Z.6 F720
G1 X62.187 Y89.587 F10800
G1 Z.2 F720
G1 E.8 F2100
M204 S800
;TYPE:Perimeter
G1 F1200
G1 X118.213 Y89.587 E1.75665
G1 X118.213 Y90.813 E.03844
G1 X61.787 Y90.813 E1.76919
G1 X61.787 Y89.587 E.03844
G1 X62.127 Y89.587 E.01066
M204 S1000
G1 X61.41 Y89.21 F10800
M204 S800
;TYPE:External perimeter
G1 F1200
G1 X118.59 Y89.21 E1.79284
G1 X118.59 Y91.19 E.06208
G1 X61.41 Y91.19 E1.79284
G1 X61.41 Y89.27 E.0602
M204 S1000
G1 X61.81 Y89.215 F10800
;WIPE_START
G1 F8640
G1 X64.701 Y89.267 E-.76
;WIPE_END
G1 E-.04 F2100
G1 Z.6 F720
G1 X117.335 Y89.7 F10800
G1 Z.2 F720
G1 E.8 F2100
M204 S800
;TYPE:Solid infill
;WIDTH:0.421418
G1 F1200
G1 X117.93 Y90.296 E.02651
G1 X117.93 Y90.53 E.00738
G1 X117.629 Y90.53 E.00947
G1 X116.969 Y89.87 E.02939
G1 X116.434 Y89.87 E.01685
G1 X117.094 Y90.53 E.02939
G1 X116.559 Y90.53 E.01685
G1 X115.898 Y89.87 E.02939
G1 X115.363 Y89.87 E.01685
G1 X116.023 Y90.53 E.02939
G1 X115.488 Y90.53 E.01685
G1 X114.828 Y89.87 E.02939
G1 X114.293 Y89.87 E.01685
G1 X114.953 Y90.53 E.02939
G1 X114.418 Y90.53 E.01685
G1 X113.757 Y89.87 E.02939
G1 X113.222 Y89.87 E.01685
G1 X113.882 Y90.53 E.02939
G1 X113.347 Y90.53 E.01685
G1 X112.687 Y89.87 E.02939
G1 X112.151 Y89.87 E.01685
G1 X112.812 Y90.53 E.02939
G1 X112.276 Y90.53 E.01685
G1 X111.616 Y89.87 E.02939
G1 X111.081 Y89.87 E.01685
G1 X111.741 Y90.53 E.02939
G1 X111.206 Y90.53 E.01685
G1 X110.546 Y89.87 E.02939
G1 X110.01 Y89.87 E.01685
G1 X110.671 Y90.53 E.02939
G1 X110.135 Y90.53 E.01685
G1 X109.475 Y89.87 E.02939
G1 X108.94 Y89.87 E.01685
G1 X109.6 Y90.53 E.02939
G1 X109.065 Y90.53 E.01685
G1 X108.405 Y89.87 E.02939
G1 X107.869 Y89.87 E.01685
G1 X108.529 Y90.53 E.02939
G1 X107.994 Y90.53 E.01685
G1 X107.334 Y89.87 E.02939
G1 X106.799 Y89.87 E.01685
G1 X107.459 Y90.53 E.02939
G1 X106.924 Y90.53 E.01685
G1 X106.263 Y89.87 E.02939
G1 X105.728 Y89.87 E.01685
G1 X106.388 Y90.53 E.02939
G1 X105.853 Y90.53 E.01685
G1 X105.193 Y89.87 E.02939
G1 X104.658 Y89.87 E.01685
G1 X105.318 Y90.53 E.02939
G1 X104.783 Y90.53 E.01685
G1 X104.122 Y89.87 E.02939
G1 X103.587 Y89.87 E.01685
G1 X104.247 Y90.53 E.02939
G1 X103.712 Y90.53 E.01685
G1 X103.052 Y89.87 E.02939
G1 X102.516 Y89.87 E.01685
G1 X103.177 Y90.53 E.02939
G1 X102.641 Y90.53 E.01685
G1 X101.981 Y89.87 E.02939
G1 X101.446 Y89.87 E.01685
G1 X102.106 Y90.53 E.02939
G1 X101.571 Y90.53 E.01685
G1 X100.911 Y89.87 E.02939
G1 X100.375 Y89.87 E.01685
G1 X101.036 Y90.53 E.02939
G1 X100.5 Y90.53 E.01685
G1 X99.84 Y89.87 E.02939
G1 X99.305 Y89.87 E.01685
G1 X99.965 Y90.53 E.02939
G1 X99.43 Y90.53 E.01685
G1 X98.77 Y89.87 E.02939
G1 X98.234 Y89.87 E.01685
G1 X98.894 Y90.53 E.02939
G1 X98.359 Y90.53 E.01685
G1 X97.699 Y89.87 E.02939
G1 X97.164 Y89.87 E.01685
G1 X97.824 Y90.53 E.02939
G1 X97.289 Y90.53 E.01685
G1 X96.628 Y89.87 E.02939
G1 X96.093 Y89.87 E.01685
G1 X96.753 Y90.53 E.02939
G1 X96.218 Y90.53 E.01685
G1 X95.558 Y89.87 E.02939
G1 X95.023 Y89.87 E.01685
G1 X95.683 Y90.53 E.02939
G1 X95.148 Y90.53 E.01685
G1 X94.487 Y89.87 E.02939
G1 X93.952 Y89.87 E.01685
G1 X94.612 Y90.53 E.02939
G1 X94.077 Y90.53 E.01685
G1 X93.417 Y89.87 E.02939
G1 X92.881 Y89.87 E.01685
G1 X93.542 Y90.53 E.02939
G1 X93.006 Y90.53 E.01685
G1 X92.346 Y89.87 E.02939
G1 X91.811 Y89.87 E.01685
G1 X92.471 Y90.53 E.02939
G1 X91.936 Y90.53 E.01685
G1 X91.276 Y89.87 E.02939
G1 X90.74 Y89.87 E.01685
G1 X91.401 Y90.53 E.02939
G1 X90.865 Y90.53 E.01685
G1 X90.205 Y89.87 E.02939
G1 X89.67 Y89.87 E.01685
G1 X90.33 Y90.53 E.02939
G1 X89.795 Y90.53 E.01685
G1 X89.135 Y89.87 E.02939
G1 X88.599 Y89.87 E.01685
G1 X89.26 Y90.53 E.02939
G1 X88.724 Y90.53 E.01685
G1 X88.064 Y89.87 E.02939
G1 X87.529 Y89.87 E.01685
G1 X88.189 Y90.53 E.02939
G1 X87.654 Y90.53 E.01685
G1 X86.993 Y89.87 E.02939
G1 X86.458 Y89.87 E.01685
G1 X87.118 Y90.53 E.02939
G1 X86.583 Y90.53 E.01685
G1 X85.923 Y89.87 E.02939
G1 X85.388 Y89.87 E.01685
G1 X86.048 Y90.53 E.02939
G1 X85.513 Y90.53 E.01685
G1 X84.852 Y89.87 E.02939
G1 X84.317 Y89.87 E.01685
G1 X84.977 Y90.53 E.02939
G1 X84.442 Y90.53 E.01685
G1 X83.782 Y89.87 E.02939
G1 X83.246 Y89.87 E.01685
G1 X83.907 Y90.53 E.02939
G1 X83.371 Y90.53 E.01685
G1 X82.711 Y89.87 E.02939
G1 X82.176 Y89.87 E.01685
G1 X82.836 Y90.53 E.02939
G1 X82.301 Y90.53 E.01685
G1 X81.641 Y89.87 E.02939
G1 X81.105 Y89.87 E.01685
G1 X81.766 Y90.53 E.02939
G1 X81.23 Y90.53 E.01685
G1 X80.57 Y89.87 E.02939
G1 X80.035 Y89.87 E.01685
G1 X80.695 Y90.53 E.02939
G1 X80.16 Y90.53 E.01685
G1 X79.5 Y89.87 E.02939
G1 X78.964 Y89.87 E.01685
G1 X79.625 Y90.53 E.02939
G1 X79.089 Y90.53 E.01685
G1 X78.429 Y89.87 E.02939
G1 X77.894 Y89.87 E.01685
G1 X78.554 Y90.53 E.02939
G1 X78.019 Y90.53 E.01685
G1 X77.358 Y89.87 E.02939
G1 X76.823 Y89.87 E.01685
G1 X77.483 Y90.53 E.02939
G1 X76.948 Y90.53 E.01685
G1 X76.288 Y89.87 E.02939
G1 X75.753 Y89.87 E.01685
G1 X76.413 Y90.53 E.02939
G1 X75.878 Y90.53 E.01685
G1 X75.217 Y89.87 E.02939
G1 X74.682 Y89.87 E.01685
G1 X75.342 Y90.53 E.02939
G1 X74.807 Y90.53 E.01685
G1 X74.147 Y89.87 E.02939
G1 X73.612 Y89.87 E.01685
G1 X74.272 Y90.53 E.02939
G1 X73.736 Y90.53 E.01685
G1 X73.076 Y89.87 E.02939
G1 X72.541 Y89.87 E.01685
G1 X73.201 Y90.53 E.02939
G1 X72.666 Y90.53 E.01685
G1 X72.006 Y89.87 E.02939
G1 X71.47 Y89.87 E.01685
G1 X72.131 Y90.53 E.02939
G1 X71.595 Y90.53 E.01685
G1 X70.935 Y89.87 E.02939
G1 X70.4 Y89.87 E.01685
G1 X71.06 Y90.53 E.02939
G1 X70.525 Y90.53 E.01685
G1 X69.865 Y89.87 E.02939
G1 X69.329 Y89.87 E.01685
G1 X69.99 Y90.53 E.02939
G1 X69.454 Y90.53 E.01685
G1 X68.794 Y89.87 E.02939
G1 X68.259 Y89.87 E.01685
G1 X68.919 Y90.53 E.02939
G1 X68.384 Y90.53 E.01685
G1 X67.723 Y89.87 E.02939
G1 X67.188 Y89.87 E.01685
G1 X67.848 Y90.53 E.02939
G1 X67.313 Y90.53 E.01685
G1 X66.653 Y89.87 E.02939
G1 X66.118 Y89.87 E.01685
G1 X66.778 Y90.53 E.02939
G1 X66.243 Y90.53 E.01685
G1 X65.582 Y89.87 E.02939
G1 X65.047 Y89.87 E.01685
G1 X65.707 Y90.53 E.02939
G1 X65.172 Y90.53 E.01685
G1 X64.512 Y89.87 E.02939
G1 X63.977 Y89.87 E.01685
G1 X64.637 Y90.53 E.02939
G1 X64.101 Y90.53 E.01685
G1 X63.441 Y89.87 E.02939
G1 X62.906 Y89.87 E.01685
G1 X63.566 Y90.53 E.02939
G1 X63.031 Y90.53 E.01685
G1 X62.371 Y89.87 E.02939
G1 X62.07 Y89.87 E.00947
G1 X62.07 Y90.104 E.00738
G1 X62.665 Y90.7 E.0265
M204 S1000
; stop printing object mnemokeeper.stl id:0 copy 0
M106 S84.15
;LAYER_CHANGE
;Z:0.35
;HEIGHT:0.15
;BEFORE_LAYER_CHANGE
G92 E0.0
;0.35


;WIPE_START
G1 F8640
G1 X62.07 Y90.104 E-.19445
G1 X62.07 Y89.87 E-.05414
G1 X62.371 Y89.87 E-.06946
G1 X63.031 Y90.53 E-.2156
G1 X63.566 Y90.53 E-.1236
G1 X63.252 Y90.215 E-.10276
;WIPE_END
G1 E-.04 F2100
G1 Z.6 F720
;AFTER_LAYER_CHANGE
;0.35
G1 X63.252 Y93.977 F10800
G1 Z.35 F720
G1 E.8 F2100
;TYPE:Skirt/Brim
;WIDTH:0.42
G1 F2370
G1 X61 Y93.977 E.05445
G1 X59.693 Y93.585 E.033
G1 X58.817 Y92.54 E.033
G1 X58.623 Y91.6 E.02321
G1 X58.623 Y88.8 E.06772
G1 X59.015 Y87.493 E.033
G1 X60.06 Y86.617 E.033
G1 X61 Y86.423 E.02321
G1 X119 Y86.423 E1.40272
G1 X120.307 Y86.815 E.033
G1 X121.183 Y87.86 E.033
G1 X121.377 Y88.8 E.02321
G1 X121.377 Y91.6 E.06772
G1 X120.985 Y92.907 E.033
G1 X119.94 Y93.783 E.033
G1 X119 Y93.977 E.02321
G1 X63.312 Y93.977 E1.34682
; printing object mnemokeeper.stl id:0 copy 0
;WIPE_START
G1 F8640
G1 X61 Y93.977 E-.53374
G1 X60.061 Y93.696 E-.22626
;WIPE_END
G1 E-.04 F2100
G1 Z.75 F720
G1 X61.643 Y90.557 F10800
G1 Z.35 F720
G1 E.8 F2100
M204 S800
;TYPE:Perimeter
;WIDTH:0.45
G1 F2370
G1 X61.643 Y89.443 E.02904
G1 X118.357 Y89.443 E1.47774
G1 X118.357 Y90.957 E.03946
M73 Q0 S133
G1 X61.643 Y90.957 E1.47774
G1 X61.643 Y90.617 E.00886
M204 S1000
G1 X61.225 Y91.375 F10800
M204 S800
;TYPE:External perimeter
G1 F2100
G1 X61.225 Y89.025 E.06123
G1 X118.775 Y89.025 E1.49951
G1 X118.775 Y91.375 E.06123
G1 X61.285 Y91.375 E1.49795
M204 S1000
G1 X61.42 Y91.026 F10800
;WIPE_START
G1 F8640
G1 X61.225 Y89.025 E-.5428
G1 X62.166 Y89.025 E-.2172
;WIPE_END
G1 E-.04 F2100
G1 Z.75 F720
G1 X117.38 Y90.832 F10800
G1 Z.35 F720
G1 E.8 F2100
;TYPE:Solid infill
;WIDTH:0.453618
G1 F2370
G1 X118.044 Y90.168 E.02469
G1 X118.044 Y89.756 E.01081
G1 X117.859 Y89.756 E.00485
G1 X116.972 Y90.644 E.03299
G1 X116.376 Y90.644 E.01566
G1 X117.263 Y89.756 E.03299
G1 X116.667 Y89.756 E.01566
G1 X115.78 Y90.644 E.03299
G1 X115.184 Y90.644 E.01566
G1 X116.071 Y89.756 E.03299
G1 X115.475 Y89.756 E.01566
G1 X114.588 Y90.644 E.03299
G1 X113.992 Y90.644 E.01566
G1 X114.879 Y89.756 E.03299
G1 X114.283 Y89.756 E.01566
G1 X113.396 Y90.644 E.03299
G1 X112.8 Y90.644 E.01566
G1 X113.687 Y89.756 E.03299
G1 X113.091 Y89.756 E.01566
G1 X112.204 Y90.644 E.03299
G1 X111.608 Y90.644 E.01566
G1 X112.495 Y89.756 E.03299
G1 X111.899 Y89.756 E.01566
G1 X111.012 Y90.644 E.03299
G1 X110.416 Y90.644 E.01566
G1 X111.303 Y89.756 E.03299
G1 X110.707 Y89.756 E.01566
G1 X109.82 Y90.644 E.03299
G1 X109.224 Y90.644 E.01566
G1 X110.111 Y89.756 E.03299
G1 X109.515 Y89.756 E.01566
G1 X108.628 Y90.644 E.03299
G1 X108.032 Y90.644 E.01566
G1 X108.919 Y89.756 E.03299
G1 X108.323 Y89.756 E.01566
G1 X107.436 Y90.644 E.03299
G1 X106.84 Y90.644 E.01566
G1 X107.727 Y89.756 E.03299
G1 X107.131 Y89.756 E.01566
G1 X106.244 Y90.644 E.03299
G1 X105.648 Y90.644 E.01566
G1 X106.535 Y89.756 E.03299
G1 X105.939 Y89.756 E.01566
G1 X105.052 Y90.644 E.03299
G1 X104.456 Y90.644 E.01566
G1 X105.344 Y89.756 E.03299
G1 X104.748 Y89.756 E.01566
G1 X103.86 Y90.644 E.03299
G1 X103.264 Y90.644 E.01566
G1 X104.152 Y89.756 E.03299
G1 X103.556 Y89.756 E.01566
G1 X102.668 Y90.644 E.03299
G1 X102.072 Y90.644 E.01566
G1 X102.96 Y89.756 E.03299
G1 X102.364 Y89.756 E.01566
G1 X101.476 Y90.644 E.03299
G1 X100.88 Y90.644 E.01566
G1 X101.768 Y89.756 E.03299
G1 X101.172 Y89.756 E.01566
G1 X100.284 Y90.644 E.03299
G1 X99.688 Y90.644 E.01566
G1 X100.576 Y89.756 E.03299
G1 X99.98 Y89.756 E.01566
G1 X99.092 Y90.644 E.03299
G1 X98.496 Y90.644 E.01566
G1 X99.384 Y89.756 E.03299
G1 X98.788 Y89.756 E.01566
G1 X97.9 Y90.644 E.03299
G1 X97.304 Y90.644 E.01566
G1 X98.192 Y89.756 E.03299
G1 X97.596 Y89.756 E.01566
G1 X96.708 Y90.644 E.03299
G1 X96.112 Y90.644 E.01566
G1 X97 Y89.756 E.03299
G1 X96.404 Y89.756 E.01566
G1 X95.516 Y90.644 E.03299
G1 X94.92 Y90.644 E.01566
G1 X95.808 Y89.756 E.03299
G1 X95.212 Y89.756 E.01566
G1 X94.324 Y90.644 E.03299
G1 X93.728 Y90.644 E.01566
G1 X94.616 Y89.756 E.03299
G1 X94.02 Y89.756 E.01566
G1 X93.132 Y90.644 E.03299
G1 X92.536 Y90.644 E.01566
G1 X93.424 Y89.756 E.03299
G1 X92.828 Y89.756 E.01566
G1 X91.94 Y90.644 E.03299
G1 X91.344 Y90.644 E.01566
G1 X92.232 Y89.756 E.03299
G1 X91.636 Y89.756 E.01566
G1 X90.748 Y90.644 E.03299
G1 X90.152 Y90.644 E.01566
G1 X91.04 Y89.756 E.03299
G1 X90.444 Y89.756 E.01566
G1 X89.556 Y90.644 E.03299
G1 X88.96 Y90.644 E.01566
G1 X89.848 Y89.756 E.03299
G1 X89.252 Y89.756 E.01566
G1 X88.364 Y90.644 E.03299
G1 X87.768 Y90.644 E.01566
G1 X88.656 Y89.756 E.03299
G1 X88.06 Y89.756 E.01566
G1 X87.172 Y90.644 E.03299
G1 X86.576 Y90.644 E.01566
G1 X87.464 Y89.756 E.03299
G1 X86.868 Y89.756 E.01566
G1 X85.98 Y90.644 E.03299
G1 X85.384 Y90.644 E.01566
G1 X86.272 Y89.756 E.03299
G1 X85.676 Y89.756 E.01566
G1 X84.788 Y90.644 E.03299
G1 X84.192 Y90.644 E.01566
G1 X85.08 Y89.756 E.03299
G1 X84.484 Y89.756 E.01566
G1 X83.596 Y90.644 E.03299
G1 X83 Y90.644 E.01566
G1 X83.888 Y89.756 E.03299
G1 X83.292 Y89.756 E.01566
G1 X82.404 Y90.644 E.03299
G1 X81.808 Y90.644 E.01566
G1 X82.696 Y89.756 E.03299
G1 X82.1 Y89.756 E.01566
G1 X81.212 Y90.644 E.03299
G1 X80.616 Y90.644 E.01566
G1 X81.504 Y89.756 E.03299
G1 X80.908 Y89.756 E.01566
G1 X80.02 Y90.644 E.03299
G1 X79.424 Y90.644 E.01566
G1 X80.312 Y89.756 E.03299
G1 X79.716 Y89.756 E.01566
G1 X78.828 Y90.644 E.03299
G1 X78.232 Y90.644 E.01566
G1 X79.12 Y89.756 E.03299
G1 X78.524 Y89.756 E.01566
G1 X77.636 Y90.644 E.03299
G1 X77.04 Y90.644 E.01566
G1 X77.928 Y89.756 E.03299
G1 X77.332 Y89.756 E.01566
G1 X76.444 Y90.644 E.03299
G1 X75.848 Y90.644 E.01566
G1 X76.736 Y89.756 E.03299
G1 X76.14 Y89.756 E.01566
G1 X75.252 Y90.644 E.03299
G1 X74.656 Y90.644 E.01566
G1 X75.544 Y89.756 E.03299
G1 X74.948 Y89.756 E.01566
G1 X74.06 Y90.644 E.03299
G1 X73.464 Y90.644 E.01566
G1 X74.352 Y89.756 E.03299
G1 X73.756 Y89.756 E.01566
G1 X72.868 Y90.644 E.03299
G1 X72.272 Y90.644 E.01566
G1 X73.16 Y89.756 E.03299
G1 X72.564 Y89.756 E.01566
G1 X71.676 Y90.644 E.03299
G1 X71.08 Y90.644 E.01566
G1 X71.968 Y89.756 E.03299
G1 X71.372 Y89.756 E.01566
G1 X70.484 Y90.644 E.03299
G1 X69.888 Y90.644 E.01566
G1 X70.776 Y89.756 E.03299
G1 X70.18 Y89.756 E.01566
G1 X69.292 Y90.644 E.03299
G1 X68.696 Y90.644 E.01566
G1 X69.584 Y89.756 E.03299
G1 X68.988 Y89.756 E.01566
G1 X68.1 Y90.644 E.03299
G1 X67.504 Y90.644 E.01566
G1 X68.392 Y89.756 E.03299
G1 X67.796 Y89.756 E.01566
G1 X66.908 Y90.644 E.03299
G1 X66.313 Y90.644 E.01566
G1 X67.2 Y89.756 E.03299
G1 X66.604 Y89.756 E.01566
G1 X65.717 Y90.644 E.03299
G1 X65.121 Y90.644 E.01566
G1 X66.008 Y89.756 E.03299
G1 X65.412 Y89.756 E.01566
G1 X64.525 Y90.644 E.03299
G1 X63.929 Y90.644 E.01566
G1 X64.816 Y89.756 E.03299
G1 X64.22 Y89.756 E.01566
G1 X63.333 Y90.644 E.03299
G1 X62.737 Y90.644 E.01566
G1 X63.624 Y89.756 E.03299
G1 X63.028 Y89.756 E.01566
G1 X62.141 Y90.644 E.03299
G1 X61.956 Y90.644 E.00485
G1 X61.956 Y90.232 E.01082
G1 X62.62 Y89.568 E.02468
; stop printing object mnemokeeper.stl id:0 copy 0
M106 S170.85
;LAYER_CHANGE
;Z:0.5
;HEIGHT:0.15
;BEFORE_LAYER_CHANGE
G92 E0.0
;0.5


;WIPE_START
G1 F8640
G1 X61.956 Y90.232 E-.21687
G1 X61.956 Y90.644 E-.09503
G1 X62.141 Y90.644 E-.04258
G1 X63.028 Y89.756 E-.28987
G1 X63.529 Y89.756 E-.11565
;WIPE_END
G1 E-.04 F2100
G1 Z.75 F720
;AFTER_LAYER_CHANGE
;0.5
G1 X63.529 Y86.423 F10800
G1 Z.5 F720
G1 E.8 F2100
;TYPE:Skirt/Brim
;WIDTH:0.42
G1 F2364
G1 X119 Y86.423 E1.34156
G1 X120.307 Y86.815 E.033
G1 X121.183 Y87.86 E.033
G1 X121.377 Y88.8 E.02321
G1 X121.377 Y91.6 E.06772
G1 X120.985 Y92.907 E.033
